!!!OTL: Auf der Wildbahn (159), S. 347
!!!id: T0331
**kern
*clefG2
*k[]
*G:
{8d
8g
=1
8g
8b
4.b
8b
=2
8dd
8b
8a
8b
8cc}
=3
{8cc
=4
8dd
8cc
8b
8b
8dd
8b
=5
4a}
4r
=6
{8a
8a
=7
8cc
8ee
8ee
8ee
8dd
8cc
=8
8b
8dd
4dd}
=9
{8b
8a
=10
4a
4dd
8cc
8cc
=11
4b}
4r
==
*-
!!!minrhy: 8
!!!meters: 3/4 ]  ZZ[4
!!!cut: Auf der Wildbahn (159), S. 347
!!!reg: Luxemburg
!!!trd: Singendes Volk, Esch-Alzette 1937, posth.
!!!rhy1: XX  XXX_.X  XXXXX
!!!rhy2: X  XXXXXX  X_0_
!!!key: T0331  08  G 3/4 ]  ZZ[4
!!!mod: SECHSTONSKALA DUR ?]  AMBITUS[9
!!!kad: 4253
!!!akz: 15_52_43_23_
!!!fot: 'a__b__c__d__
!!!for: 'a__b__bw_c__
!!!fok: '~a_\__~a_^__
!! PHRAS[AUFTAKTIG]
!!!fkt: historische, Kriegs- und Soldatenlieder, Liebeslied
!!!bem: Reuland, hhh Johann Frank, 1907
!! THILL, Mathias:
!! PR[31] 2K[0] 2G[8] 3K[3] 3G[5] 4A[0] 4Ü[0] 5A[7] 6K[0] 6G[3]
!! 7K[0] 7G[0] 8A[0] MEHR[0] SI[26] ABS[61] SR[8] SP[18]
!! ST[18] 2k[5] 2g[26] 3k[2] 3g[3] 4d[3] 4ü[0] 5d[3] 6k[0] 6g[0]
!! 7k[0] 7g[0] 8d[0] mehr[0] si[43] dm[-17] sr[31] sp[11]
!! 1F[34] 2F[63] 3F[0] 4F[0] LF[0] 2P[3] 3P[0] 4P[0] TRI[0] DF[3] AB[64]
!! TF[0] U3K[0] U3[0] U4[0] U4Ü[0] U5[3] U6K[0] U6[0] U7K[0] U7[0]
!! N1[18] N2K[0] N2[6] N3K[0] N3[21] N4[5] N4Ü[0] N5[27] N6K[0] N6[19]
!!!n7k: 0] N7[0] O1[0] O2K[0] O2[0] O3K[0] O3[0] HÖ[0
